app/dist/common/images/x2m-connect-limited.svg

<svg height="18" viewBox="0 0 18 18" width="18" xmlns="http://www.w3.org/2000/svg" xmlns:xlink="http://www.w3.org/1999/xlink"><linearGradient id="a" gradientUnits="userSpaceOnUse" x1="4.79" x2="4.79" y1="5" y2="13"><stop offset="0" stop-color="#181853"/><stop offset=".54" stop-color="#2d2d80"/><stop offset="1" stop-color="#16164f"/></linearGradient><linearGradient id="b" gradientUnits="userSpaceOnUse" x1="4.53" x2="8.99" y1="5.5" y2="8.59"><stop offset="0" stop-color="#5fc6da"/><stop offset=".8" stop-color="#2582b3"/></linearGradient><linearGradient id="c" gradientUnits="userSpaceOnUse" x1="13.21" x2="13.21" y1="5" y2="13"><stop offset="0" stop-color="#205393"/><stop offset=".54" stop-color="#2bb3d4"/><stop offset="1" stop-color="#257db0"/></linearGradient><linearGradient id="d" gradientUnits="userSpaceOnUse" x1="13.47" x2="9.01" y1="12.5" y2="9.41"><stop offset="0" stop-color="#5fc6da"/><stop offset=".1" stop-color="#1d5aa9"/><stop offset=".8" stop-color="#2d2d81"/></linearGradient><linearGradient id="e" gradientUnits="userSpaceOnUse" x1="5.05" x2="9.73" y1="13.13" y2="9.27"><stop offset="0" stop-color="#61c6da"/><stop offset=".54" stop-color="#2bb3d4"/><stop offset="1" stop-color="#6fcbdc"/></linearGradient><linearGradient id="f" gradientUnits="userSpaceOnUse" x1="12.95" x2="8.27" y1="4.87" y2="8.73"><stop offset="0" stop-color="#1abede"/><stop offset=".14" stop-color="#1c57a7"/><stop offset=".32" stop-color="#2d2d81"/><stop offset=".68" stop-color="#2d2d81"/><stop offset=".88" stop-color="#156cb5"/><stop offset="1" stop-color="#6fcbdc"/></linearGradient><path d="m0 0h18v18h-18z" fill="#f0f3fa"/><path d="m4 11.8v-5.55l1.5-1.25v8z" fill="url(#a)"/><path d="m5.67 5c-1.07 0-1.67.93-1.67 1.33.04-.08.24-.26.56-.26.31 0 .8.26 1.02.43l3.14 2.23 1.6-.73-3.3-2.5c-.52-.4-1.08-.5-1.34-.5z" fill="url(#b)"/><path d="m14 11.67v-5.42l-1.5-1.25v8z" fill="url(#c)"/><path d="m12.33 13c1.06 0 1.58-.96 1.67-1.38a.66.66 0 0 1 -.56.31c-.31 0-.8-.26-1.02-.43l-3.14-2.23-1.67.8c.88.66 2.84 2.03 3.36 2.43.53.4 1.1.5 1.36.5z" fill="url(#d)"/><path d="m4 11.75c.13.13.3.18.56.18.52 0 3.67-2.66 4.72-2.66.78 0 1.16.76 1.56 1.1a1.36 1.36 0 0 0 -.73-.17c-1.05 0-3.13 2.8-4.58 2.8-1.05 0-1.53-.88-1.53-1.25z" fill="url(#e)"/><path d="m13.44 6.07c.27 0 .43.05.56.18 0-.38-.5-1.25-1.67-1.25-1.43 0-3.39 2.67-4.43 2.67-.42 0-.8-.1-.83-.14.39.34.87 1.2 1.66 1.2 1.05 0 4.2-2.66 4.72-2.66z" fill="url(#f)"/></svg>

<!-- by TradingView --><svg width="18" height="18" viewBox="0 0 18 18" xmlns="http://www.w3.org/2000/svg"><path fill="#F0F3FA" d="M0 0h18v18H0z"/><path d="M4 11.8V6.25L5.5 5v8L4 11.8Z" fill="url(#aft2bhc2j)"/><path d="M5.67 5C4.6 5 4 5.93 4 6.33c.04-.08.24-.26.56-.26.31 0 .8.26 1.02.43l3.14 2.23 1.6-.73-3.3-2.5C6.5 5.1 5.94 5 5.68 5Z" fill="url(#bft2bhc2j)"/><path d="M14 11.67V6.25L12.5 5v8l1.5-1.33Z" fill="url(#cft2bhc2j)"/><path d="M12.33 13c1.06 0 1.58-.96 1.67-1.38a.66.66 0 0 1-.56.31c-.31 0-.8-.26-1.02-.43L9.28 9.27l-1.67.8c.88.66 2.84 2.03 3.36 2.43.53.4 1.1.5 1.36.5Z" fill="url(#dft2bhc2j)"/><path d="M4 11.75c.13.13.3.18.56.18.52 0 3.67-2.66 4.72-2.66.78 0 1.16.76 1.56 1.1a1.36 1.36 0 0 0-.73-.17c-1.05 0-3.13 2.8-4.58 2.8C4.48 13 4 12.12 4 11.75Z" fill="url(#eft2bhc2j)"/><path d="M13.44 6.07c.27 0 .43.05.56.18C14 5.87 13.5 5 12.33 5 10.9 5 8.94 7.67 7.9 7.67c-.42 0-.8-.1-.83-.14.39.34.87 1.2 1.66 1.2 1.05 0 4.2-2.66 4.72-2.66Z" fill="url(#fft2bhc2j)"/><defs><linearGradient id="aft2bhc2j" x1="4.79" y1="5" x2="4.79" y2="13" gradientUnits="userSpaceOnUse"><stop stop-color="#181853"/><stop offset=".54" stop-color="#2D2D80"/><stop offset="1" stop-color="#16164F"/></linearGradient><linearGradient id="bft2bhc2j" x1="4.53" y1="5.5" x2="8.99" y2="8.59" gradientUnits="userSpaceOnUse"><stop stop-color="#5FC6DA"/><stop offset=".8" stop-color="#2582B3"/></linearGradient><linearGradient id="cft2bhc2j" x1="13.21" y1="5" x2="13.21" y2="13" gradientUnits="userSpaceOnUse"><stop stop-color="#205393"/><stop offset=".54" stop-color="#2BB3D4"/><stop offset="1" stop-color="#257DB0"/></linearGradient><linearGradient id="dft2bhc2j" x1="13.47" y1="12.5" x2="9.01" y2="9.41" gradientUnits="userSpaceOnUse"><stop stop-color="#5FC6DA"/><stop offset=".1" stop-color="#1D5AA9"/><stop offset=".8" stop-color="#2D2D81"/></linearGradient><linearGradient id="eft2bhc2j" x1="5.05" y1="13.13" x2="9.73" y2="9.27" gradientUnits="userSpaceOnUse"><stop stop-color="#61C6DA"/><stop offset=".54" stop-color="#2BB3D4"/><stop offset="1" stop-color="#6FCBDC"/></linearGradient><linearGradient id="fft2bhc2j" x1="12.95" y1="4.87" x2="8.27" y2="8.73" gradientUnits="userSpaceOnUse"><stop stop-color="#1ABEDE"/><stop offset=".14" stop-color="#1C57A7"/><stop offset=".32" stop-color="#2D2D81"/><stop offset=".68" stop-color="#2D2D81"/><stop offset=".88" stop-color="#156CB5"/><stop offset="1" stop-color="#6FCBDC"/></linearGradient></defs></svg>
